X:133
T:Roaring Jelly #1
C:Joe Buchanan's Scottish Tome - Page 254.2
I:254 2
Z:Carl Allison
R:Jig
L:1/8
M:6/8
K:D
|: A | "D"DED F2 A | "D"d2 f "A7"ecA | "G"G2 "D/F#"B F2 A | "Em"E2 d "A7"GFE |
"D"DED F2 A | "D"d2 f "A7"ecA | "Em"Bgf "A7"edc | "D"d3 d2 :|
|: a | a2 f f2 d | "D"A2 f "B7"agf | "Em"g2 e e2 c | "A7"A2 e gfe |
"D"fed "Em"gfe | "D/F#"agf "G"bag | "D"fed "A7"edc | "D"d3 d2 :|

